X:27
T:Waltz,A. WCF.027
M:3/4
L:1/8
Q:3/4=40
S:Wm Clarke MS, Feltwell, 1858
W:.Missing bar lines and dots added
O:England
A:Norfolk
N:Dots missing from quaver/semiquaver pairs.
Z:Transcription Lyn Law 04/2006
K:G
B2|d2c2A2|B4G2|AB c2e2|d4B2|d2c2A2|B4G2|AB c2A2|G4:|!
|:B>d|g2g2″^*”B>d|g2g2g2|a2a2d’2|b2g2″^*”B>d|!
g2g2B>d|g2g2b2|a>c’ f>a d>2|g4:|]

